src/assets/send-icon.svg

<svg width="29" height="26" viewBox="0 0 29 26" fill="none" xmlns="http://www.w3.org/2000/svg">
<path d="M2.91379 14.886L11.6648 13.1357C12.4462 12.9796 12.4462 12.7255 11.6648 12.5694L2.91379 10.8191C2.39255 10.7151 1.8849 10.2069 1.78083 9.68617L0.0305427 0.935177C-0.126018 0.153312 0.334758 -0.209966 1.05897 0.124249L27.7629 12.4489C28.2452 12.6716 28.2452 13.0335 27.7629 13.2561L1.05897 25.5808C0.334758 25.915 -0.126018 25.5518 0.0305427 24.7699L1.78083 16.0189C1.8849 15.4981 2.39255 14.99 2.91379 14.886Z" fill="#3E3E3E"/>
</svg>

<svg width="29" height="26" fill="none" xmlns="http://www.w3.org/2000/svg"><path d="M2.914 14.886l8.75-1.75c.782-.156.782-.41 0-.567l-8.75-1.75c-.521-.104-1.03-.612-1.133-1.133L.03.936C-.126.152.335-.21 1.059.123L27.763 12.45c.482.223.482.585 0 .807L1.059 25.581c-.724.334-1.185-.03-1.028-.811l1.75-8.751c.104-.52.612-1.029 1.133-1.133z" fill="#3E3E3E"/></svg>
